svg/aws-ec2-i3.svg

<?xml version="1.0" encoding="UTF-8"?>
<svg xmlns="http://www.w3.org/2000/svg" xmlns:xlink="http://www.w3.org/1999/xlink" width="32" height="32" viewBox="0 0 32 32">
<path fill-rule="evenodd" fill="rgb(83.137255%, 35.686275%, 2.745098%)" fill-opacity="1" d="M 16.90625 19.339844 C 16.300781 19.335938 15.703125 19.210938 15.148438 18.964844 L 15.148438 18.089844 C 15.832031 18.320312 16.402344 18.433594 16.867188 18.433594 C 17.304688 18.433594 17.644531 18.335938 17.882812 18.140625 C 18.121094 17.945312 18.238281 17.667969 18.238281 17.304688 C 18.238281 16.621094 17.808594 16.28125 16.945312 16.28125 C 16.644531 16.28125 16.34375 16.296875 16.046875 16.335938 L 16.046875 15.617188 L 17.882812 13.621094 L 15.242188 13.621094 L 15.242188 12.734375 L 19.097656 12.734375 L 19.097656 13.582031 L 17.15625 15.484375 C 17.242188 15.480469 17.328125 15.476562 17.414062 15.476562 C 17.777344 15.476562 18.105469 15.550781 18.402344 15.707031 C 18.695312 15.855469 18.929688 16.074219 19.105469 16.355469 C 19.28125 16.632812 19.367188 16.953125 19.367188 17.316406 C 19.367188 17.707031 19.269531 18.054688 19.070312 18.359375 C 18.871094 18.664062 18.585938 18.90625 18.210938 19.078125 C 17.839844 19.253906 17.402344 19.339844 16.90625 19.339844 M 12.628906 19.199219 L 13.769531 19.199219 L 13.769531 12.734375 L 12.628906 12.734375 Z M 6 26 L 26 26 L 26 6 L 6 6 Z M 30.667969 8.667969 L 30.667969 7.332031 L 27.332031 7.332031 L 27.332031 5.332031 C 27.332031 4.964844 27.035156 4.667969 26.667969 4.667969 L 24.667969 4.667969 L 24.667969 1.332031 L 23.332031 1.332031 L 23.332031 4.667969 L 20.667969 4.667969 L 20.667969 1.332031 L 19.332031 1.332031 L 19.332031 4.667969 L 16.667969 4.667969 L 16.667969 1.332031 L 15.332031 1.332031 L 15.332031 4.667969 L 12.667969 4.667969 L 12.667969 1.332031 L 11.332031 1.332031 L 11.332031 4.667969 L 8.667969 4.667969 L 8.667969 1.332031 L 7.332031 1.332031 L 7.332031 4.667969 L 5.332031 4.667969 C 4.964844 4.667969 4.667969 4.964844 4.667969 5.332031 L 4.667969 7.332031 L 1.332031 7.332031 L 1.332031 8.667969 L 4.667969 8.667969 L 4.667969 11.332031 L 1.332031 11.332031 L 1.332031 12.667969 L 4.667969 12.667969 L 4.667969 15.332031 L 1.332031 15.332031 L 1.332031 16.667969 L 4.667969 16.667969 L 4.667969 19.332031 L 1.332031 19.332031 L 1.332031 20.667969 L 4.667969 20.667969 L 4.667969 23.332031 L 1.332031 23.332031 L 1.332031 24.667969 L 4.667969 24.667969 L 4.667969 26.667969 C 4.667969 27.035156 4.964844 27.332031 5.332031 27.332031 L 7.332031 27.332031 L 7.332031 30.667969 L 8.667969 30.667969 L 8.667969 27.332031 L 11.332031 27.332031 L 11.332031 30.667969 L 12.667969 30.667969 L 12.667969 27.332031 L 15.332031 27.332031 L 15.332031 30.667969 L 16.667969 30.667969 L 16.667969 27.332031 L 19.332031 27.332031 L 19.332031 30.667969 L 20.667969 30.667969 L 20.667969 27.332031 L 23.332031 27.332031 L 23.332031 30.667969 L 24.667969 30.667969 L 24.667969 27.332031 L 26.667969 27.332031 C 27.035156 27.332031 27.332031 27.035156 27.332031 26.667969 L 27.332031 24.667969 L 30.667969 24.667969 L 30.667969 23.332031 L 27.332031 23.332031 L 27.332031 20.667969 L 30.667969 20.667969 L 30.667969 19.332031 L 27.332031 19.332031 L 27.332031 16.667969 L 30.667969 16.667969 L 30.667969 15.332031 L 27.332031 15.332031 L 27.332031 12.667969 L 30.667969 12.667969 L 30.667969 11.332031 L 27.332031 11.332031 L 27.332031 8.667969 Z M 30.667969 8.667969 "/>
</svg>

<svg role="img" viewBox="0 0 32 32" height="32" width="32" xmlns="http://www.w3.org/2000/svg"><path d="M16.906 19.34a4.398 4.398 0 0 1-1.758-.375v-.875c.684.23 1.254.344 1.72.344.437 0 .777-.098 1.015-.293.238-.196.355-.473.355-.836 0-.684-.43-1.024-1.293-1.024-.3 0-.601.016-.898.055v-.719l1.836-1.996h-2.64v-.887h3.855v.848l-1.942 1.902c.086-.004.172-.007.258-.007.363 0 .691.074.988.23.293.148.528.367.703.648.176.278.262.598.262.961 0 .391-.097.739-.297 1.043a1.99 1.99 0 0 1-.86.72c-.37.175-.808.26-1.304.26m-4.277-.14h1.14v-6.465h-1.14ZM6 26h20V6H6ZM30.668 8.668V7.332h-3.336v-2a.664.664 0 0 0-.664-.664h-2V1.332h-1.336v3.336h-2.664V1.332h-1.336v3.336h-2.664V1.332h-1.336v3.336h-2.664V1.332h-1.336v3.336H8.668V1.332H7.332v3.336h-2a.664.664 0 0 0-.664.664v2H1.332v1.336h3.336v2.664H1.332v1.336h3.336v2.664H1.332v1.336h3.336v2.664H1.332v1.336h3.336v2.664H1.332v1.336h3.336v2c0 .367.297.664.664.664h2v3.336h1.336v-3.336h2.664v3.336h1.336v-3.336h2.664v3.336h1.336v-3.336h2.664v3.336h1.336v-3.336h2.664v3.336h1.336v-3.336h2a.664.664 0 0 0 .664-.664v-2h3.336v-1.336h-3.336v-2.664h3.336v-1.336h-3.336v-2.664h3.336v-1.336h-3.336v-2.664h3.336v-1.336h-3.336V8.668Zm0 0" fill="rgb(83.137255%, 35.686275%, 2.745098%)" fill-rule="evenodd"/></svg>
